packages/ui-icons/src/Basic/24/Mobile-base-station_24.svg

<svg xmlns="http://www.w3.org/2000/svg" viewBox="0 0 32 32"><path d="M22.71 7.81A12.86 12.86 0 0 0 13.53 4a12.87 12.87 0 0 0-9.19 3.81l1.42 1.42a11 11 0 0 1 15.53 0ZM13.26 11.83a5 5 0 0 0-3.53 1.47l1.42 1.41a3 3 0 0 1 2.11-.88 3 3 0 0 1 2.12.88l1.42-1.41a5 5 0 0 0-3.53-1.47Z"/><path d="M19.74 10.64a9 9 0 0 0-12.74 0l1.42 1.41a7 7 0 0 1 9.88 0Z"/><path d="M24.68 11H22v2h1.32l1.88 4.69 2.8 1.64V23h-1.15a4 4 0 0 0-7.71 0h-6.29a4 4 0 0 0-7.71 0H4V13h2v-2H2v14h3.14a4 4 0 0 0 7.71 0h6.29a4 4 0 0 0 7.71 0H30v-6.82l-3.2-1.87ZM9 26a2 2 0 1 1 2-2 2 2 0 0 1-2 2Zm14 0a2 2 0 1 1 2-2 2 2 0 0 1-2 2Z"/></svg>

<svg id="Ready" xmlns="http://www.w3.org/2000/svg" viewBox="0 0 32 32"><title>Megaicons_work_24_1.8_cp</title><path d="M22.71,7.81A12.86,12.86,0,0,0,13.53,4h0A12.87,12.87,0,0,0,4.34,7.81L5.76,9.23a11,11,0,0,1,15.53,0Z"/><path d="M13.26,11.83a5,5,0,0,0-3.53,1.47l1.42,1.41a3,3,0,0,1,2.11-.88h0a3,3,0,0,1,2.12.88l1.42-1.41a5,5,0,0,0-3.53-1.47Z"/><path d="M19.74,10.64A9,9,0,0,0,7,10.64l1.42,1.41a7,7,0,0,1,9.88,0Z"/><path d="M24.68,11H22v2h1.32l1.88,4.69L28,19.33V23H26.85a4,4,0,0,0-7.71,0H12.85a4,4,0,0,0-7.71,0H4V13H6V11H2V25H5.14a4,4,0,0,0,7.71,0h6.29a4,4,0,0,0,7.71,0H30V18.18l-3.2-1.87ZM9,26a2,2,0,1,1,2-2A2,2,0,0,1,9,26Zm14,0a2,2,0,1,1,2-2A2,2,0,0,1,23,26Z"/></svg>
